build/assets/img/svg/icon-arrow-1.svg

<svg width="72" height="61" viewBox="0 0 72 61" fill="none" xmlns="http://www.w3.org/2000/svg">
<path d="M3.45275 2.01581L5.29183 1.04652L6.93096 4.54658L5.0919 5.51587L3.45275 2.01581ZM7.30164 9.64088L9.14071 8.67159C9.87426 10.1143 10.6169 11.3539 11.1512 12.7914L9.31209 13.7607C8.56945 12.5212 7.8359 11.0784 7.30164 9.64088ZM11.5128 18.0889L13.3518 17.1196C14.0854 18.5624 14.828 19.8019 15.5707 21.0415L13.9218 22.2191C12.9889 20.7712 12.2554 19.3285 11.5128 18.0889ZM16.3399 26.1461L17.9888 24.9685C18.7314 26.2081 19.6734 27.4528 20.6153 28.6975L18.9664 29.8752C18.0245 28.6304 17.0826 27.3857 16.3399 26.1461ZM21.7922 33.6094L23.4502 32.2286C24.3921 33.4733 25.3431 34.5149 26.4844 35.7648L25.0257 37.1507C23.8754 36.104 22.7342 34.8541 21.7922 33.6094ZM28.2683 40.4889L29.736 38.8999C30.8863 39.9466 32.0366 40.9934 33.196 41.837L31.9276 43.4312C30.5689 42.5824 29.4186 41.5357 28.2683 40.4889ZM35.596 46.1703L36.6742 44.3677C38.0329 45.2165 39.2014 45.8569 40.5692 46.5025L39.6902 48.3103C38.3134 47.8678 36.9547 47.0191 35.596 46.1703ZM44.1831 50.4606L44.8718 48.4445C46.2487 48.887 47.8158 49.5377 49.2017 49.777L48.7123 51.7982C47.127 51.5538 45.5509 51.1062 44.1831 50.4606ZM53.2596 52.7296L53.5498 50.7032C54.7364 50.9374 56.1315 50.9735 57.3272 51.0045L57.9251 51.02L57.8342 53.0515L57.0371 53.0309C55.8413 52.9999 54.6456 52.9689 53.2596 52.7296ZM62.527 50.7324C63.9311 50.5654 65.5437 50.2004 66.9569 49.8303L67.4639 51.8773C65.8514 52.2423 64.4381 52.6125 62.8256 52.9775L62.527 50.7324Z" fill="black"/>
<path d="M59.4012 44.1419L58.339 45.7341L66.8341 50.8142L61.3074 59.1749L62.8462 60.2273L69.8401 50.0824L59.4012 44.1419Z" fill="black"/>
</svg>

<svg width="72" height="61" fill="none" xmlns="http://www.w3.org/2000/svg"><path d="M3.453 2.016l1.839-.97 1.639 3.5-1.84.97-1.638-3.5zM7.302 9.64l1.839-.97c.733 1.443 1.476 2.683 2.01 4.12l-1.839.97c-.743-1.24-1.476-2.683-2.01-4.12zm4.21 8.448l1.84-.97c.733 1.443 1.476 2.683 2.219 3.922l-1.65 1.178c-.932-1.448-1.666-2.89-2.408-4.13zm4.828 8.057l1.649-1.178c.742 1.24 1.684 2.485 2.626 3.73l-1.649 1.177c-.942-1.245-1.883-2.49-2.626-3.729zm5.452 7.463l1.658-1.38c.942 1.244 1.893 2.286 3.034 3.536l-1.458 1.386a26.732 26.732 0 01-3.234-3.542zm6.476 6.88l1.468-1.59c1.15 1.048 2.3 2.094 3.46 2.938l-1.268 1.594c-1.36-.849-2.51-1.895-3.66-2.942zm7.328 5.681l1.078-1.802a36.047 36.047 0 003.895 2.134l-.879 1.808c-1.377-.442-2.735-1.29-4.094-2.14zm8.587 4.29l.689-2.016c1.377.443 2.944 1.094 4.33 1.333l-.49 2.021c-1.585-.244-3.161-.692-4.529-1.337zm9.077 2.27l.29-2.027c1.186.234 2.582.27 3.777.301l.598.016-.09 2.031-.798-.02c-1.196-.031-2.391-.062-3.777-.301zm9.267-1.998c1.404-.167 3.017-.532 4.43-.902l.507 2.047c-1.613.365-3.026.735-4.638 1.1l-.299-2.245z" fill="#000"/><path d="M59.401 44.142l-1.062 1.592 8.495 5.08-5.527 8.36 1.54 1.053 6.993-10.145-10.439-5.94z" fill="#000"/></svg>
